brandFactory_export/3.Masa/Informacion_3Masa.svg

<?xml version="1.0" encoding="UTF-8"?>
<svg width="24px" height="24px" viewBox="0 0 24 24" version="1.1" xmlns="http://www.w3.org/2000/svg" xmlns:xlink="http://www.w3.org/1999/xlink">
    <title>3.Masa/Informacion_3Masa</title>
    <g id="Symbols" stroke="none" stroke-width="1" fill="none" fill-rule="evenodd">
        <g id="3.Masa/Informacion_3Masa" fill="#5CB615" fill-rule="nonzero">
            <path d="M11.8252101,7.89915966 C11.3915966,7.89915966 11.0386555,7.54621849 11.0386555,7.11260504 C11.0386555,6.6789916 11.3915966,6.32605042 11.8252101,6.32605042 C12.2588235,6.32605042 12.6117647,6.6789916 12.6117647,7.11260504 C12.6084034,7.54621849 12.2588235,7.89915966 11.8252101,7.89915966 Z M12.5546218,17.2941176 C12.5546218,17.7008403 12.2252101,18.0336134 11.8151261,18.0336134 C11.4084034,18.0336134 11.0756303,17.7042017 11.0756303,17.2941176 L11.0756303,9.61344538 C11.0756303,9.20672269 11.405042,8.87394958 11.8151261,8.87394958 C12.2218487,8.87394958 12.5546218,9.20336134 12.5546218,9.61344538 L12.5546218,17.2941176 Z M12.3529412,0.00336134454 C12.2319328,0 12.107563,0 11.9831933,0 C11.7344538,0 11.4857143,0.00336134454 11.2705882,0.00672268908 C9.01848739,0.0470588235 0,0.894117647 0,11.7815126 C0,22.6420168 9.00504202,23.5563025 11.3176471,23.6134454 C11.589916,23.6201681 11.9058824,23.6268908 12.2117647,23.6268908 L12.4369748,23.6268908 C14.8067227,23.6067227 23.6235294,22.7932773 23.6235294,11.8554622 C23.6235294,0.894117647 14.7226891,0.0369747899 12.3529412,0.00336134454 Z" id="Informacion_3Masa"></path>
        </g>
    </g>
</svg>

<svg width="24" height="24" viewBox="0 0 24 24" xmlns="http://www.w3.org/2000/svg"><path d="M11.825 7.9a.788.788 0 010-1.574.788.788 0 010 1.573zm.73 9.394a.74.74 0 01-1.48 0v-7.68a.74.74 0 011.48 0v7.68zM12.353.004C12.232 0 12.108 0 11.983 0c-.249 0-.497.003-.712.007C9.018.047 0 .894 0 11.782c0 10.86 9.005 11.774 11.318 11.831.272.007.588.014.894.014h.225c2.37-.02 11.187-.834 11.187-11.772C23.624.895 14.723.037 12.353.003z" fill="#5CB615" fill-rule="nonzero"/></svg>
